src/assets/images/details/11.svg

<svg width="32" height="32" viewBox="0 0 32 32" fill="none" xmlns="http://www.w3.org/2000/svg">
<rect x="8" width="20" height="20" rx="10" fill="url(#paint0_radial_953_258)"/>
<path fill-rule="evenodd" clip-rule="evenodd" d="M28.78 2.37425C29.0244 2.67888 29.0691 3.09789 28.8944 3.44719L26.8668 7.50251L28.7575 7.02984C29.2933 6.89589 29.8362 7.22165 29.9701 7.75744C30.1041 8.29324 29.7783 8.83617 29.2425 8.97012L25.2425 9.97012C24.8637 10.0648 24.4643 9.93034 24.22 9.62571C23.9756 9.32108 23.9309 8.90207 24.1056 8.55276L26.1332 4.49745L24.2425 4.97012C23.7067 5.10407 23.1638 4.77831 23.0298 4.24251C22.8959 3.70672 23.2217 3.16378 23.7575 3.02984L27.7575 2.02984C28.1363 1.93512 28.5357 2.06962 28.78 2.37425Z" fill="url(#paint1_linear_953_258)"/>
<path fill-rule="evenodd" clip-rule="evenodd" d="M28.78 2.37425C29.0244 2.67888 29.0691 3.09789 28.8944 3.44719L26.8668 7.50251L28.7575 7.02984C29.2933 6.89589 29.8362 7.22165 29.9701 7.75744C30.1041 8.29324 29.7783 8.83617 29.2425 8.97012L25.2425 9.97012C24.8637 10.0648 24.4643 9.93034 24.22 9.62571C23.9756 9.32108 23.9309 8.90207 24.1056 8.55276L26.1332 4.49745L24.2425 4.97012C23.7067 5.10407 23.1638 4.77831 23.0298 4.24251C22.8959 3.70672 23.2217 3.16378 23.7575 3.02984L27.7575 2.02984C28.1363 1.93512 28.5357 2.06962 28.78 2.37425Z" fill="url(#paint2_radial_953_258)"/>
<path fill-rule="evenodd" clip-rule="evenodd" d="M26.0766 2.45006L27.7575 2.02984C28.1363 1.93512 28.5357 2.06962 28.78 2.37425C29.0244 2.67888 29.0691 3.09789 28.8944 3.44719L28.1198 4.99647C28.0802 4.99881 28.0402 5 28 5C26.8954 5 26 4.10457 26 3C26 2.80927 26.0267 2.62478 26.0766 2.45006Z" fill="url(#paint3_radial_953_258)"/>
<path fill-rule="evenodd" clip-rule="evenodd" d="M19 6.5C19 6.22386 19.2239 6 19.5 6H22.5C22.6894 6 22.8625 6.107 22.9472 6.27639C23.0319 6.44579 23.0136 6.64849 22.9 6.8L20.5 10H22.5C22.7761 10 23 10.2239 23 10.5C23 10.7761 22.7761 11 22.5 11H19.5C19.3106 11 19.1375 10.893 19.0528 10.7236C18.9681 10.5542 18.9864 10.3515 19.1 10.2L21.5 7H19.5C19.2239 7 19 6.77614 19 6.5Z" fill="#43BFFF"/>
<path fill-rule="evenodd" clip-rule="evenodd" d="M14.0257 8.3419C14.113 8.07993 14.3962 7.93835 14.6581 8.02567L17.6581 9.02567C17.8452 9.08803 17.9781 9.25451 17.9976 9.45074C18.017 9.64698 17.9193 9.8363 17.7481 9.93414L15.219 11.3793L17.1581 12.0257C17.4201 12.113 17.5617 12.3962 17.4744 12.6581C17.387 12.9201 17.1039 13.0617 16.8419 12.9744L13.8419 11.9744C13.6548 11.912 13.5219 11.7455 13.5024 11.5493C13.483 11.3531 13.5807 11.1637 13.7519 11.0659L16.281 9.62072L14.3419 8.97436C14.0799 8.88703 13.9383 8.60387 14.0257 8.3419Z" fill="url(#paint4_linear_953_258)"/>
<defs>
<radialGradient id="paint0_radial_953_258" cx="0" cy="0" r="1" gradientUnits="userSpaceOnUse" gradientTransform="translate(16.5 11.5) rotate(-21.8014) scale(8.07775 5.76555)">
<stop stop-color="#EFA031"/>
<stop offset="1" stop-color="#F0A83E" stop-opacity="0"/>
</radialGradient>
<linearGradient id="paint1_linear_953_258" x1="24" y1="8.49998" x2="28" y2="6.49998" gradientUnits="userSpaceOnUse">
<stop stop-color="#2C80E2"/>
<stop offset="1" stop-color="#36A0FF"/>
</linearGradient>
<radialGradient id="paint2_radial_953_258" cx="0" cy="0" r="1" gradientUnits="userSpaceOnUse" gradientTransform="translate(29 7.5) rotate(164.055) scale(3.64006 0.840972)">
<stop stop-color="#63BEFE"/>
<stop offset="1" stop-color="#63BEFE" stop-opacity="0"/>
</radialGradient>
<radialGradient id="paint3_radial_953_258" cx="0" cy="0" r="1" gradientUnits="userSpaceOnUse" gradientTransform="translate(28 2.5) rotate(45) scale(1.41421)">
<stop stop-color="#63BEFE"/>
<stop offset="1" stop-color="#4FB5FC" stop-opacity="0"/>
</radialGradient>
<linearGradient id="paint4_linear_953_258" x1="12.5" y1="12" x2="16.5" y2="11.5" gradientUnits="userSpaceOnUse">
<stop stop-color="#697BEC"/>
<stop offset="1" stop-color="#8CBAF0"/>
</linearGradient>
</defs>
</svg>

<svg width="32" height="32" fill="none" xmlns="http://www.w3.org/2000/svg"><rect x="8" width="20" height="20" rx="10" fill="url(#a)"/><path fill-rule="evenodd" clip-rule="evenodd" d="M28.78 2.374a1 1 0 0 1 .114 1.073l-2.027 4.056 1.89-.473a1 1 0 1 1 .485 1.94l-4 1a1 1 0 0 1-1.136-1.417l2.027-4.056-1.89.473a1 1 0 1 1-.485-1.94l4-1a1 1 0 0 1 1.022.344z" fill="url(#b)"/><path fill-rule="evenodd" clip-rule="evenodd" d="M28.78 2.374a1 1 0 0 1 .114 1.073l-2.027 4.056 1.89-.473a1 1 0 1 1 .485 1.94l-4 1a1 1 0 0 1-1.136-1.417l2.027-4.056-1.89.473a1 1 0 1 1-.485-1.94l4-1a1 1 0 0 1 1.022.344z" fill="url(#c)"/><path fill-rule="evenodd" clip-rule="evenodd" d="m26.077 2.45 1.68-.42a1 1 0 0 1 1.137 1.417l-.774 1.55L28 5a2 2 0 0 1-1.923-2.55z" fill="url(#d)"/><path fill-rule="evenodd" clip-rule="evenodd" d="M19 6.5a.5.5 0 0 1 .5-.5h3a.5.5 0 0 1 .4.8L20.5 10h2a.5.5 0 0 1 0 1h-3a.5.5 0 0 1-.4-.8L21.5 7h-2a.5.5 0 0 1-.5-.5z" fill="#43BFFF"/><path fill-rule="evenodd" clip-rule="evenodd" d="M14.026 8.342a.5.5 0 0 1 .632-.316l3 1a.5.5 0 0 1 .09.908L15.22 11.38l1.94.647a.5.5 0 1 1-.317.948l-3-1a.5.5 0 0 1-.09-.908L16.28 9.62l-1.94-.647a.5.5 0 0 1-.315-.632z" fill="url(#e)"/><defs><radialGradient id="a" cx="0" cy="0" r="1" gradientUnits="userSpaceOnUse" gradientTransform="matrix(7.5 -3 2.14127 5.35318 16.5 11.5)"><stop stop-color="#EFA031"/><stop offset="1" stop-color="#F0A83E" stop-opacity="0"/></radialGradient><radialGradient id="c" cx="0" cy="0" r="1" gradientUnits="userSpaceOnUse" gradientTransform="matrix(-3.50001 .99998 -.23103 -.80862 29 7.5)"><stop stop-color="#63BEFE"/><stop offset="1" stop-color="#63BEFE" stop-opacity="0"/></radialGradient><radialGradient id="d" cx="0" cy="0" r="1" gradientUnits="userSpaceOnUse" gradientTransform="matrix(1 1 -1 1 28 2.5)"><stop stop-color="#63BEFE"/><stop offset="1" stop-color="#4FB5FC" stop-opacity="0"/></radialGradient><linearGradient id="b" x1="24" y1="8.5" x2="28" y2="6.5" gradientUnits="userSpaceOnUse"><stop stop-color="#2C80E2"/><stop offset="1" stop-color="#36A0FF"/></linearGradient><linearGradient id="e" x1="12.5" y1="12" x2="16.5" y2="11.5" gradientUnits="userSpaceOnUse"><stop stop-color="#697BEC"/><stop offset="1" stop-color="#8CBAF0"/></linearGradient></defs></svg>
